src/svgs/delivery.svg

<svg xmlns="http://www.w3.org/2000/svg" viewBox="0 0 24 24" width="512" height="512" aria-labelledby="ctdelivery-desc ctdelivery-title"><title id="ctdelivery-title">Delivery Icon</title><desc id="ctdelivery-desc">A picture depicting a truck.</desc><path d="M22 14v-2l-2-5h-5V5H2v10h2.184A2.966 2.966 0 004 16a3 3 0 006 0 2.966 2.966 0 00-.184-1h5.368A2.962 2.962 0 0015 16a3 3 0 006 0 2.962 2.962 0 00-.184-1H22v-1zM7 17a1 1 0 111-1 1 1 0 01-1 1zm11 0a1 1 0 111-1 1 1 0 01-1 1zm-1-5V9h2l1 3z"/></svg>

<svg xmlns="http://www.w3.org/2000/svg" viewBox="0 0 24 24"><path d="M22,14V12L20,7H15V5H2V15H4.184A2.966,2.966,0,0,0,4,16a3,3,0,0,0,6,0,2.966,2.966,0,0,0-.184-1h5.368A2.962,2.962,0,0,0,15,16a3,3,0,0,0,6,0,2.962,2.962,0,0,0-.184-1H22V14ZM7,17a1,1,0,1,1,1-1A1,1,0,0,1,7,17Zm11,0a1,1,0,1,1,1-1A1,1,0,0,1,18,17Zm-1-5V9h2l1,3Z"/></svg>
